X:1
T:Christus resurgens 3v
T:Orlando di Lasso
T:Source : Magnum opus musicum (1604)---München---First print A.Berg---1575. Editor : André Vierendeels (16/04/15).
T:Notes : Original clefs : C1, C4, F4 Original note values have been halved Editorial accidentals above the staff Square bracket indicates ligature Music collected by Ferdinando and Rodolpho di Lasso 
T:Christus resurgens 3v
T:#
C:Orlando di Lasso
%%score [ 1 2 3 ]
L:1/8
Q:1/4=94
M:2/2
K:C
V:1 treble nm="Superius" snm="S"
V:2 treble-8 nm="Tenor" snm="T"
V:3 bass nm="Bassus" snm="B"
V:1
 D4 A2 A2 | d4 c3 B | AG F3 E A2- | AG/F/ G2 E2 c2- | c2 B2 G3 F/E/ | D4 z4 | D4 A2 A2 | d4 c3 B | %8
w: Chri- stus re-|sur- * *||* * * gens ex mor-|* tu- * * *|is,|Chri- stue re-|sur- * *|
 AG FE cB AG | F3 E/D/ C2 C2 | C3 C B,4 | D3 D C2 D2 | E4 G3 G | F2 G2 A2 F2 | E4 c3 c | F4 z2 D2 | %16
w: |* * * gens ex|mor- tu- is,|jam non mo- ri-|tur, iam non|mo- ri- tur, iam|non mo- ri-|tur, mors|
 F4 E4 | A4 G4 | z2 A2 _B4 | A2 d3 c/B/ c2 | F4 z2 A2 | c4 B4 | z2 E2 F4 | E2 F4 ED | %24
w: il- li|ul- tra,|mors il-|li ul- * * *|tra, mors|il- li,|mors il-|li ul- * *|
 FE cB AG F2- | FE/D/ E2 A3 B | c4 z2 G2 | ^FG AE G2 G2 | A2 B2 c2 F2 | E2 C2 G3 A | Bc dB c2 C2- | %31
w: ||tra non|do- * * * * mi-|na- bi- tur, quod|e- nim vi- *|* * * * * vit,|
 CD EF E2 E2 | D2 G2 F4 | E2 c2 B2 G2- | GA B3 c d2 | G4 F2 A2- | A2 B2 c4 | d4 z2 A2- | %38
w: _ _ _ _ _ quod|e- nim vi-|vit, quod e- nim|_ _ vi- * *|* vit, vi-|* vit De-|o, vi-|
 A2 B2 cB AG | A3 G/F/ G4- | G2 A2 z2 G2- | G2 A2 Bc dc | BA G3 F/E/ F2 | E4 z2 A2- | A2 G2 F2 E2 | %45
w: * vit De- * * *||* o, vi-|* vir De- * * *||o, al-|* le- lu- ia,|
 z2 D2 C2 B,2 | A,2 A4 G2- | G2 F4 E2- | ED EF G2 D2 | E2 ^F2 G2 E2 | ED ED/C/ D2 F2- | %51
w: al- le- lu-|ia, al- le-|* lu- ia,|_ _ _ _ _ al-|le- lu- ia, al-|le- * * * * * lu-|
 FE/D/ CD E2 D2- | DE FG A2 D2 | C2 F3 E/D/ E2 | A2 c3 B c2 | G2 C2 D2 E2 | A,2 D3 C/B,/ C2 | %57
w: * * * * * * ia,|_ _ _ _ _ al-|le- lu- * * *|ia, al- * *|le- lu- ia, al-|le- lu- * * *|
 !fermata!D8 |] %58
w: ia.|
V:2
 z8 | D4 A2 A2 | d4 c4 | B4 c3 d | e2 d2 e2 c2- | c2 B2 A2 d2- | d2 cB cd c2 | F3 E/D/ FE AB | %8
w: |Chri- stus re-|sur- gens|ex mor- *|* tu- is, Chri-|* stus re- sur-|||
 c4 F3 G | AB A3 G/F/ E2 | F2 E2 G4 | z8 | z2 c4 B2 | A2 G2 F2 c2- | c2 B2 A2 G2 | A2 A2 _B4 | %16
w: gens ex _|_ _ mor- * * *|* tu- is,||jam non|mo- ri- tur, jam|_ non mo- ri-|tur mors il-|
 A2 d3 c c2- | c2 BA cB e2- | e2 c2 z2 d2 | f4 e4 | z2 d2 f4- | f2 e4 d2- | dc/B/ c2 d2 A2 | %23
w: li ul- * *||* tra, mors|il- li,|mors il-|* li ul-|* * * * * tra,|
 c2 A3 G/F/ G2 | A3 G FG AF | G4 F2 f2 | f2 e2 d2 c2 | d2 c2 c2 B2 | A2 G2 A4- | A4 z4 | z4 z2 F2 | %31
w: mors il- * * li|ul- * * * * *|* tra non|do- mi- na- bi-|tur, non do- mi-|na- bi- tur,|_|quod|
 E2 C2 c2 G2- | GA BG A2 d2 | c2 A2 e4 | d4 z2 B2- | B2 c2 de fe | dc d2 A2 A2- | A2 B2 c4 | %38
w: e- nim vi- vit,|_ _ _ _ _ quod|e- nim vi-|vit, vi-|* vir De- * * *|* * * o, vi-|* vit De-|
 d4 z2 c2- | c2 d2 ed cB | c3 B/A/ B4 | e3 d/c/ dc BA | GA BG A3 B | c4 d4 | c2 B2 A2 c2 | %45
w: o, vi-|vit De- * * * *|* * * o,|De- * * * * * *||o, al-|le- lu- ia, al-|
 B2 A4 G2 | z2 c4 B2- | B2 A4 G2 | c4 B4 | A4 G4- | G4 _B4 | A4 G4 | F8 | A4 G4 | F4 E4- | E4 G4 | %56
w: le- lu- ia,|al- le|_ lu- ia,|al le|lu- ia,|_ al-|le lu-|ia,|al- le|lu- ia,|_ al-|
 F4 E4 | !fermata!D8 |] %58
w: le- lu-|ia.|
V:3
 z8 | z8 | z4 A,,4 | E,2 E,2 A,4 | G,4 z4 | G,,4 D,2 D,2 | G,4 F,3 E, | D,C, _B,,2 A,,2 F,2- | %8
w: ||Chri-|stus re- sur-|gens|Chri- stus re-|sur- * *|* * gens ex mor-|
 F,G, A,3 G,F,E, | D,3 C,/B,,/ A,,4- | A,,2 A,,2 G,,2 G,2- | G,2 F,2 E,2 D,2 | C,4 z4 | %13
w: ||* tu- is, jam|_ non mo- ri-|tur,|
 z4 z2 A,2- | A,2 G,2 F,2 E,2 | D,8- | D,4 z2 E,2 | F,4 E,4 | A,4 G,4 | z4 A,4 | _B,4 A,4- | %21
w: jam|_ non mo- ri-|tur,|_ mors|il- li|ul- tra,|mors|il- li|
 A,4 G,4 | A,4 z4 | A,,4 _B,,4 | A,,4 D,4 | C,4 z2 D,2 | A,3 G, F,2 E,2 | D,2 A,,2 E,3 D, | %28
w: _ ul-|tra,|mors il-|li ul-|tra, non|do- mi- na- bi-|tur, non do- mi-|
 C,2 B,,2 A,,4 | z2 F,2 E,2 C,2 | G,4 A,4 | A,,4 z2 C,2 | B,,2 G,,2 D,4 | A,,4 z2 C,2 | %34
w: na- bi- tur,|quod e- nim|vi- *|vit, quod|e- nim vi-|vit, quod|
 B,,2 G,,2 G,3 F, | E,4 D,4 | z4 z2 F,2- | F,2 G,2 A,G, F,E, | F,D, G,2 A,G, F,E, | %39
w: e- nim vi- *|* vir,|vi-|* vit De- * * *|* * o, De- * * *|
 F,3 E,/D,/ C,2 E,2- | E,2 F,2 G,F, E,D, | C,3 B,,/A,,/ G,,4- | G,,4 D,4 | z2 A,2 G,2 F,2 | %44
w: |||* o,|al- le- lu-|
 E,4 z2 A,2 | G,2 F,2 E,4 | F,4 E,4 | D,4 C,3 B,, | A,,B,, C,D, E,2 B,,2 | ^C,2 D,2 E,2 =C,2 | %50
w: ia, al-|le- lu- ia,|al- le-|lu- ia, _|_ _ _ _ _ al-|le- lu- ia, al-|
 C,B,, C,B,,/A,,/ G,,2 D,2- | D,C,/B,,/ A,,B,, C,2 _B,,2- |"^#""^#" B,,2 A,,G,, F,,2 _B,,2 | %53
w: le- * * * * * lu-|* * * * * * ia,|_ _ _ _ al-|
 A,,2 F,,2 C,4 | z2 A,,2 A,,G,, A,,B,, | C,2 A,,2 B,,2 C,2 | D,4 A,,4 | !fermata!D,8 |] %58
w: le- lu- ia,|al- le- * * *|* lu- * *||ia.|

